Newaita/actions/24/window-new.svg

<svg height="24" viewBox="0 0 24 24" width="24" xmlns="http://www.w3.org/2000/svg"><g fill="#424242"><path d="m15.378906 17.550781h5.957032c.273437 0 .496093.222657.496093.496094v.992187c0 .277344-.222656.496094-.496093.496094h-5.957032c-.273437 0-.496094-.21875-.496094-.496094v-.992187c0-.273437.222657-.496094.496094-.496094zm0 0"/><path d="m19.347656 15.566406v5.957032c0 .273437-.21875.496093-.496094.496093h-.992187c-.273437 0-.496094-.222656-.496094-.496093v-5.957032c0-.273437.222657-.496094.496094-.496094h.992187c.277344 0 .496094.222657.496094.496094zm0 0"/><path d="m1.984375 4.15625c0-1.097656.886719-1.984375 1.984375-1.984375h15.875c1.101562 0 1.988281.886719 1.988281 1.984375v8.929688h-1.988281v-3.96875h-15.875v9.921874c0 .550782.441406.992188.992188.992188h7.9375v1.988281h-8.929688c-1.097656 0-1.984375-.886719-1.984375-1.988281zm1.984375.992188v2.976562h15.875v-2.976562c0-.550782-.441406-.992188-.992188-.992188h-13.890624c-.550782 0-.992188.441406-.992188.992188zm0 0"/></g></svg>

<?xml version="1.0" encoding="UTF-8"?>
<svg xmlns="http://www.w3.org/2000/svg" xmlns:xlink="http://www.w3.org/1999/xlink" width="24px" height="24px" viewBox="0 0 24 24" version="1.1">
<g id="surface1">
<path style=" stroke:none;fill-rule:nonzero;fill:rgb(25.882354%,25.882354%,25.882354%);fill-opacity:1;" d="M 15.378906 17.550781 L 21.335938 17.550781 C 21.609375 17.550781 21.832031 17.773438 21.832031 18.046875 L 21.832031 19.039062 C 21.832031 19.316406 21.609375 19.535156 21.335938 19.535156 L 15.378906 19.535156 C 15.105469 19.535156 14.882812 19.316406 14.882812 19.039062 L 14.882812 18.046875 C 14.882812 17.773438 15.105469 17.550781 15.378906 17.550781 Z M 15.378906 17.550781 "/>
<path style=" stroke:none;fill-rule:nonzero;fill:rgb(25.882354%,25.882354%,25.882354%);fill-opacity:1;" d="M 19.347656 15.566406 L 19.347656 21.523438 C 19.347656 21.796875 19.128906 22.019531 18.851562 22.019531 L 17.859375 22.019531 C 17.585938 22.019531 17.363281 21.796875 17.363281 21.523438 L 17.363281 15.566406 C 17.363281 15.292969 17.585938 15.070312 17.859375 15.070312 L 18.851562 15.070312 C 19.128906 15.070312 19.347656 15.292969 19.347656 15.566406 Z M 19.347656 15.566406 "/>
<path style=" stroke:none;fill-rule:nonzero;fill:rgb(25.882354%,25.882354%,25.882354%);fill-opacity:1;" d="M 1.984375 4.15625 C 1.984375 3.058594 2.871094 2.171875 3.96875 2.171875 L 19.84375 2.171875 C 20.945312 2.171875 21.832031 3.058594 21.832031 4.15625 L 21.832031 13.085938 L 19.84375 13.085938 L 19.84375 9.117188 L 3.96875 9.117188 L 3.96875 19.039062 C 3.96875 19.589844 4.410156 20.03125 4.960938 20.03125 L 12.898438 20.03125 L 12.898438 22.019531 L 3.96875 22.019531 C 2.871094 22.019531 1.984375 21.132812 1.984375 20.03125 Z M 3.96875 5.148438 L 3.96875 8.125 L 19.84375 8.125 L 19.84375 5.148438 C 19.84375 4.597656 19.402344 4.15625 18.851562 4.15625 L 4.960938 4.15625 C 4.410156 4.15625 3.96875 4.597656 3.96875 5.148438 Z M 3.96875 5.148438 "/>
</g>
</svg>
